X:1
T:O'Sullivan's March
M:6/8
L:1/8
Q:80
C:Trad.
S:March
K:HP
|: {g}e | \
{g}A3/2{d}c/2{e}B{g}B3/2c/2e | \
{g}f3/2e/2c{gBd}B2A |
{g}A3/2{d}c/2{e}B{gcd}c2B | \
{g}B3/2{d}A/2{e}A{GAG}A2e | \
{g}A3/2{d}c/2{e}B{g}B3/2{d}c/2e |
{g}f3/2e/2c{gBd}B2A | \
{g}A3/2{d}c/2{e}B{gcd}c2B | \
{g}B3/2{d}A/2{e}A{GAG}A2 ::
a | \
{fg}f2a{fg}f2a | \
{gfg}f/2a3/2f{g}f3/2e/2c | \
{g}e3/2f/2e{gef}ece |
{g}e/2a3/2c{gcd}c3/2B/2{G}A | \
{gde}d3/2c/2d{gef}ec/2e | \
{g}f/2a3/2c{gBd}B2A |
{g}A3/2{d}c/2{e}B{gcd}c2B | \
{g}B3/2{d}A/2{e}A{GAG}A2 :|
